src/rounded/icons/fi-rr-skateboard.svg

<svg id="Layer_1" height="512" viewBox="0 0 24 24" width="512" xmlns="http://www.w3.org/2000/svg" data-name="Layer 1"><path d="m21.835 2.165a7.389 7.389 0 0 0 -10.451 0l-9.219 9.219a7.39 7.39 0 1 0 10.451 10.451l9.219-9.219a7.389 7.389 0 0 0 0-10.451zm-1.414 9.035-9.221 9.221a5.39 5.39 0 1 1 -7.621-7.621l9.221-9.221a5.39 5.39 0 1 1 7.621 7.621zm-.714-2.909a1 1 0 0 1 0 1.414l-3 3a1 1 0 0 1 -1.414-1.414l.793-.793-2.586-2.584-.793.793a1 1 0 0 1 -1.414-1.414l3-3a1 1 0 1 1 1.414 1.414l-.793.793 2.586 2.586.793-.793a1 1 0 0 1 1.414 0zm-7 7a1 1 0 0 1 0 1.414l-3 3a1 1 0 0 1 -1.414-1.414l.793-.793-2.586-2.584-.793.793a1 1 0 0 1 -1.414-1.414l3-3a1 1 0 0 1 1.414 1.414l-.793.793 2.586 2.586.793-.793a1 1 0 0 1 1.414 0z"/></svg>

<svg id="Layer_1" data-name="Layer 1" xmlns="http://www.w3.org/2000/svg" viewBox="0 0 24 24"><path d="M21.835,2.165a7.389,7.389,0,0,0-10.451,0L2.165,11.384A7.39,7.39,0,1,0,12.616,21.835l9.219-9.219a7.389,7.389,0,0,0,0-10.451ZM20.421,11.2,11.2,20.421A5.39,5.39,0,1,1,3.579,12.8L12.8,3.579A5.39,5.39,0,1,1,20.421,11.2Zm-.714-2.909a1,1,0,0,1,0,1.414l-3,3a1,1,0,0,1-1.414-1.414l.793-.793L13.5,7.914l-.793.793a1,1,0,0,1-1.414-1.414l3-3a1,1,0,1,1,1.414,1.414l-.793.793L17.5,9.086l.793-.793A1,1,0,0,1,19.707,8.293Zm-7,7a1,1,0,0,1,0,1.414l-3,3a1,1,0,0,1-1.414-1.414l.793-.793L6.5,14.914l-.793.793a1,1,0,0,1-1.414-1.414l3-3a1,1,0,0,1,1.414,1.414l-.793.793L10.5,16.086l.793-.793A1,1,0,0,1,12.707,15.293Z"/></svg>
